X:2552
T:The Kendal reel
C:anon.
O:England
S:Wm Irwin MS
R:Reel
Z:C.G.P
F:http://abc.musicaviva.com/tunes/england/kendal-reel/kendal-reel.abc
%Posted at abcusers Jan 2nd 2001 by Johnny Adams.
M:4/4
L:1/8
Q:1/4=200
K:F
c|:cBAG F2F2|F2Ac fcAF|BAG^F G2G2|GABc defd:|
A2cef2fc|g2ge afcA|A2ce fcAF|B2dc BAGF|
A2cef2fc|g2ge afcA|cAcf dBdf|egce f2fg|
afc'f affa|ecgef2fg|afc'f affa|ecgef2fg|
afc'f affa|ecbg ecce|fcgc a cbg|fefaf2f2|]
W:
W:
W:  From Musica Viva - http://www.musicaviva.com
W:  the Internet center for free sheet music downloads.
